src/images/std-icons/std-menu.svg

<svg xmlns="http://www.w3.org/2000/svg" width="512" height="512" viewBox="0 0 512 512">
  <title>menu</title>
  <path fill="#000" fill-rule="nonzero" d="M85.3329343,149.333333 C85.267067,160.256677 93.4627214,169.465278 104.32,170.666667 L407.68,170.666667 C418.537279,169.465278 426.732933,160.256677 426.667066,149.333333 C426.732933,138.409989 418.537279,129.201389 407.68,128 L104.32,128 C93.4627214,129.201389 85.267067,138.409989 85.3329343,149.333333 L85.3329343,149.333333 Z M104.32,277.333333 L407.68,277.333333 C419.462075,277.333333 429.013333,267.782075 429.013333,256 C429.013333,244.217925 419.462075,234.666667 407.68,234.666667 L104.32,234.666667 C92.5379253,234.666667 82.9866667,244.217925 82.9866667,256 C82.9866667,267.782075 92.5379253,277.333333 104.32,277.333333 Z M104.32,384 L407.68,384 C419.462075,384 429.013333,374.448741 429.013333,362.666667 C429.013333,350.884592 419.462075,341.333333 407.68,341.333333 L104.32,341.333333 C92.5379253,341.333333 82.9866667,350.884592 82.9866667,362.666667 C82.9866667,374.448741 92.5379253,384 104.32,384 Z"/>
</svg>

<svg xmlns="http://www.w3.org/2000/svg" viewBox="0 0 512 512">
  <title>
    menu
  </title>
  <path d="M85.33 149.33a21.33 21.33 0 0 0 18.99 21.34h303.36a21.33 21.33 0 0 0 18.99-21.34A21.33 21.33 0 0 0 407.68 128H104.32a21.33 21.33 0 0 0-18.99 21.33zm18.99 128h303.36a21.33 21.33 0 1 0 0-42.66H104.32a21.33 21.33 0 1 0 0 42.66zm0 106.67h303.36a21.33 21.33 0 1 0 0-42.67H104.32a21.33 21.33 0 0 0 0 42.67z"/>
</svg>
